src/icons/article.svg

<svg width="56" height="56" viewBox="0 0 56 56" fill="none" xmlns="http://www.w3.org/2000/svg">
<g clip-path="url(#clip0_1335_3351)">
<path d="M56.0352 0.0524902H0.0351562V56.0525H56.0352V0.0524902Z" fill="white"/>
<path d="M30.503 48.7375H11.883C8.52297 48.7375 5.79297 46.025 5.79297 42.6825V7.27998C5.79297 3.93748 8.52297 1.22498 11.883 1.22498H37.083C40.443 1.22498 43.173 3.93748 43.173 7.27998V30.94H41.5805V7.27998C41.5805 4.81248 39.5505 2.79998 37.0655 2.79998H11.883C9.39797 2.79998 7.36797 4.81248 7.36797 7.27998V42.665C7.36797 45.1325 9.39797 47.145 11.883 47.145H30.5205V48.7375H30.503Z" fill="#1D1D1B"/>
<path fill-rule="evenodd" clip-rule="evenodd" d="M44.8173 55.055L33.2148 55.0025C32.7248 55.0025 32.3223 54.6175 32.2873 54.1275C32.0423 50.3125 29.7323 47.39 27.6148 44.1875C26.6173 42.665 26.0748 40.74 26.4948 39.0775C26.8798 37.5025 28.0348 36.3125 29.9773 35.9275L30.2923 35.8925V24.36C30.3098 23.485 30.6248 22.7325 31.2198 22.19C31.8673 21.595 32.7423 21.35 33.5823 21.35C34.5098 21.35 35.4723 21.4725 36.1373 22.19C36.7848 22.8725 36.8898 23.87 36.8548 24.9025V29.54L37.2048 29.435C37.4498 29.4 37.6948 29.365 37.9398 29.365C38.4298 29.365 38.9023 29.4 39.3223 29.5225C39.7598 29.645 40.1623 29.855 40.4948 30.205C40.6523 30.38 40.7748 30.5725 40.8798 30.7825L41.0198 31.2025L41.6848 31.01C41.9298 30.975 42.1748 30.94 42.4198 30.94C42.9098 30.94 43.3823 30.975 43.8023 31.0975C44.2398 31.22 44.6423 31.43 44.9748 31.78C45.2898 32.13 45.4823 32.55 45.5873 33.005V33.0575L45.7448 33.04C45.9023 33.04 46.0598 33.0225 46.2173 33.0225C47.2848 33.0225 48.1948 33.285 48.8423 34.1425C49.4023 34.8775 49.6648 35.945 49.8923 37.205C50.8723 43.54 46.3398 50.155 45.7448 54.3025C45.6748 54.7575 45.2898 55.1075 44.8173 55.09V55.055ZM44.0473 53.2V53.1125C45.0973 48.5975 48.8773 42.8225 48.0548 37.45C47.8273 36.1725 47.6173 35.5425 47.3723 35.21C47.2148 35 46.9698 34.825 46.2348 34.825C46.0423 34.825 45.8673 34.8425 45.7098 34.8775L45.6748 37.66C45.6748 38.1675 45.2548 38.5875 44.7298 38.57C44.2223 38.57 43.8023 38.15 43.8023 37.6425L43.8373 34.405C43.8723 33.4075 43.7148 33.0925 43.6098 32.9875C43.5223 32.9 43.2948 32.7425 42.4198 32.7425C41.7898 32.7425 41.4048 32.935 41.2123 33.1975L41.1773 36.085C41.1773 36.5925 40.7573 37.0125 40.2323 36.995C39.7248 36.995 39.3048 36.575 39.3048 36.0675L39.3398 32.83C39.3748 31.8325 39.2173 31.5175 39.1123 31.4125C39.0248 31.325 38.7798 31.1675 37.9223 31.1675C37.4498 31.1675 37.1173 31.2725 36.9073 31.4475L36.8198 31.535V36.1725C36.8198 36.68 36.3823 37.1 35.8748 37.1C35.3673 37.1 34.9473 36.68 34.9473 36.1725L34.9823 24.8325C35.0173 23.8175 34.8598 23.52 34.7548 23.415C34.6673 23.3275 34.4223 23.17 33.5648 23.17C33.0398 23.17 32.6723 23.31 32.4623 23.5025C32.2698 23.6775 32.0948 23.975 32.1298 24.57V24.6225V41.055C32.1298 41.5625 31.7098 41.9825 31.2023 41.9825C30.6948 41.9825 30.2748 41.5625 30.2748 41.055V37.7125L29.8373 37.835C28.8923 38.1675 28.4548 38.78 28.2973 39.48C28.0523 40.5125 28.3673 41.9125 29.1723 43.1375C30.9048 45.7625 33.1973 48.7025 33.9323 52.3775L34.0548 53.13L44.0298 53.1825L44.0473 53.2Z" fill="#010101"/>
<path d="M44.8179 55.3175L33.2154 55.265C32.5854 55.265 32.0604 54.775 32.0254 54.145C31.8329 50.89 30.0654 48.3 28.2279 45.5525C27.9479 45.15 27.6854 44.7475 27.4054 44.3275C26.2854 42.63 25.8479 40.635 26.2504 39.0075C26.6704 37.24 27.9829 36.05 29.9254 35.665H30.0304V24.3425C30.0479 23.38 30.3979 22.5575 31.0454 21.98C31.8504 21.2275 32.8829 21.07 33.6004 21.07C34.4754 21.07 35.5954 21.175 36.3479 21.98C37.1004 22.8025 37.1704 23.9575 37.1354 24.885V29.155C37.4154 29.1025 37.6779 29.085 37.9579 29.085C38.5354 29.085 39.0079 29.1375 39.4104 29.2425C39.9354 29.3825 40.3729 29.645 40.7054 29.995C40.8804 30.17 41.0204 30.3975 41.1429 30.625L41.2129 30.835L41.6329 30.7125C41.9129 30.66 42.1754 30.6425 42.4554 30.6425C43.0329 30.6425 43.5054 30.695 43.9079 30.8C44.4329 30.94 44.8704 31.2025 45.2029 31.5525C45.5004 31.8675 45.7104 32.2525 45.8329 32.725C47.3554 32.585 48.3879 33.005 49.0879 33.915C49.6654 34.6675 49.9454 35.735 50.1729 37.0825C50.8204 41.2475 49.1579 45.43 47.7054 49.1225C46.9529 51.03 46.2354 52.8325 46.0254 54.2675C45.9379 54.845 45.4304 55.2825 44.8354 55.2825L44.8179 55.3175ZM44.8179 54.7925C45.1504 54.7925 45.4304 54.5475 45.4829 54.215C45.6929 52.71 46.4279 50.89 47.1979 48.9475C48.6329 45.325 50.2604 41.2125 49.6304 37.1875C49.4029 35.91 49.1579 34.9125 48.6329 34.2475C48.1079 33.565 47.3379 33.2325 46.2179 33.2325C46.0604 33.2325 45.9204 33.2325 45.7629 33.25L45.3779 33.32L45.3429 33.0575C45.2379 32.5675 45.0629 32.2 44.7829 31.92C44.5204 31.64 44.1704 31.43 43.7329 31.3075C43.3829 31.2025 42.9454 31.1675 42.4204 31.1675C42.1754 31.1675 41.9479 31.185 41.7204 31.22L40.8454 31.465L40.6179 30.8175C40.5304 30.66 40.4254 30.485 40.2854 30.345C40.0229 30.065 39.6729 29.855 39.2354 29.75C38.8854 29.645 38.4479 29.61 37.9229 29.61C37.6779 29.61 37.4504 29.6275 37.2229 29.6625L36.5579 29.855V24.8675C36.6104 23.6425 36.4179 22.855 35.9279 22.33C35.3154 21.665 34.3354 21.5775 33.5654 21.5775C32.9354 21.5775 32.0604 21.7175 31.3779 22.3475C30.8529 22.8375 30.5554 23.52 30.5379 24.325V24.64V36.085L29.9954 36.155C28.2804 36.505 27.1079 37.555 26.7404 39.1125C26.3729 40.6 26.7929 42.4375 27.8254 44.0125C28.1054 44.4325 28.3679 44.835 28.6479 45.2375C30.5379 48.0375 32.3404 50.6975 32.5504 54.0925C32.5679 54.4425 32.8654 54.705 33.2154 54.705L44.8179 54.7575V54.7925ZM44.2579 53.4625L33.8454 53.41L33.6879 52.43C33.0754 49.3675 31.3079 46.76 29.7504 44.4675C29.4704 44.065 29.2079 43.68 28.9629 43.295C28.1229 42.035 27.7729 40.5475 28.0529 39.4275C28.2804 38.535 28.8579 37.9225 29.7679 37.6075L30.5554 37.3975V41.09C30.5554 41.4575 30.8529 41.755 31.2204 41.755C31.5879 41.755 31.8854 41.4575 31.8854 41.09V24.675C31.8504 24.0625 31.9904 23.625 32.2879 23.345C32.4979 23.1525 32.8829 22.9425 33.5654 22.9425C34.5279 22.9425 34.8079 23.135 34.9479 23.275C35.1754 23.52 35.2629 24.045 35.2454 24.885L35.2104 36.225C35.2104 36.4 35.2804 36.575 35.4029 36.6975C35.5254 36.82 35.7004 36.89 35.8754 36.89C36.2429 36.89 36.5404 36.5925 36.5404 36.225V31.465L36.7329 31.3075C37.0479 31.08 37.4504 30.9575 37.9404 30.9575C38.9029 30.9575 39.1829 31.15 39.3229 31.29C39.5504 31.535 39.6379 32.06 39.6204 32.9L39.5854 36.1375C39.5854 36.3125 39.6554 36.4875 39.7779 36.61C39.9004 36.7325 40.0754 36.8025 40.2504 36.8025C40.6179 36.8025 40.9154 36.505 40.9154 36.155L40.9504 33.18L41.0029 33.11C41.2129 32.865 41.6154 32.55 42.4204 32.55C43.3829 32.55 43.6629 32.7425 43.8029 32.8825C44.0304 33.1275 44.1179 33.6525 44.1004 34.4925L44.0654 37.73C44.0654 37.905 44.1354 38.08 44.2579 38.2025C44.3804 38.325 44.5554 38.395 44.7304 38.395C45.0979 38.395 45.3954 38.0975 45.3954 37.7475L45.4304 34.755L45.6404 34.7025C45.8329 34.6675 46.0254 34.6325 46.2354 34.6325C47.0404 34.6325 47.3554 34.825 47.5829 35.1225C47.8804 35.5075 48.0904 36.2075 48.3179 37.4675C48.8779 41.09 47.3554 44.94 46.0079 48.335C45.3254 50.085 44.6604 51.73 44.3279 53.235L44.2754 53.5325L44.2579 53.4625ZM34.2829 52.885L43.8204 52.92C44.1879 51.415 44.8179 49.7875 45.5004 48.0725C46.8129 44.7475 48.3179 40.9675 47.7754 37.485C47.5654 36.33 47.3729 35.6825 47.1454 35.3675C47.0579 35.2625 46.9354 35.0875 46.2179 35.0875C46.1304 35.0875 46.0429 35.0875 45.9554 35.0875V37.66C45.9204 38.3075 45.3779 38.8325 44.7304 38.8325C44.4154 38.8325 44.1004 38.71 43.8904 38.4825C43.6629 38.255 43.5404 37.9575 43.5579 37.6425L43.5929 34.405C43.6279 33.4075 43.4704 33.1975 43.4529 33.18C43.4529 33.18 43.2954 33.0225 42.4554 33.0225C42.0354 33.0225 41.7029 33.1275 41.5104 33.32L41.4754 36.1025C41.4754 36.75 40.9329 37.275 40.2854 37.275C39.9704 37.275 39.6729 37.1525 39.4454 36.925C39.2179 36.6975 39.0954 36.4 39.1129 36.085L39.1479 32.8475C39.1829 31.8325 39.0254 31.64 39.0079 31.6225C39.0079 31.6225 38.8504 31.465 38.0104 31.465C37.5729 31.465 37.3104 31.57 37.1704 31.675V36.2075C37.1704 36.855 36.6104 37.3975 35.9629 37.3975C35.6479 37.3975 35.3504 37.275 35.1229 37.0475C34.8954 36.82 34.7729 36.5225 34.7729 36.2075L34.8079 24.8675C34.8429 23.8525 34.6679 23.6425 34.6504 23.625C34.6504 23.625 34.4929 23.4675 33.6529 23.4675C33.1104 23.4675 32.8304 23.6425 32.7254 23.73C32.5504 23.905 32.4629 24.185 32.4804 24.5875V41.09C32.4804 41.755 31.9379 42.28 31.2904 42.28C30.6429 42.28 30.1004 41.7375 30.1004 41.09V38.08L29.9954 38.115C29.2604 38.36 28.8054 38.85 28.6304 39.5675C28.3854 40.5475 28.7179 41.8775 29.4704 43.015C29.7154 43.4 29.9779 43.785 30.2579 44.1875C31.8504 46.515 33.6354 49.1575 34.2654 52.3425L34.3529 52.885H34.2829Z" fill="white"/>
<path d="M36.1019 12.1975H13.3344C12.8969 12.1975 12.5469 11.8475 12.5469 11.41C12.5469 10.9725 12.8969 10.6225 13.3344 10.6225H36.1019C36.5394 10.6225 36.8894 10.9725 36.8894 11.41C36.8894 11.8475 36.5394 12.1975 36.1019 12.1975Z" fill="#1D1D1B"/>
<path d="M36.1019 17.4125H13.3344C12.8969 17.4125 12.5469 17.0625 12.5469 16.625C12.5469 16.1875 12.8969 15.8375 13.3344 15.8375H36.1019C36.5394 15.8375 36.8894 16.1875 36.8894 16.625C36.8894 17.0625 36.5394 17.4125 36.1019 17.4125Z" fill="#1D1D1B"/>
<path d="M28.4369 22.645H13.3344C12.8969 22.645 12.5469 22.295 12.5469 21.8575C12.5469 21.42 12.8969 21.07 13.3344 21.07H28.4369C28.8744 21.07 29.2244 21.42 29.2244 21.8575C29.2244 22.295 28.8744 22.645 28.4369 22.645Z" fill="#1D1D1B"/>
<path d="M28.4369 27.86H13.3344C12.8969 27.86 12.5469 27.51 12.5469 27.0725C12.5469 26.635 12.8969 26.285 13.3344 26.285H28.4369C28.8744 26.285 29.2244 26.635 29.2244 27.0725C29.2244 27.51 28.8744 27.86 28.4369 27.86Z" fill="#1D1D1B"/>
<path d="M28.4369 33.0925H13.3344C12.8969 33.0925 12.5469 32.7425 12.5469 32.305C12.5469 31.8675 12.8969 31.5175 13.3344 31.5175H28.4369C28.8744 31.5175 29.2244 31.8675 29.2244 32.305C29.2244 32.7425 28.8744 33.0925 28.4369 33.0925Z" fill="#1D1D1B"/>
</g>
<defs>
<clipPath id="clip0_1335_3351">
<rect width="56" height="56" fill="white"/>
</clipPath>
</defs>
</svg>

<svg width="56" height="56" fill="none" xmlns="http://www.w3.org/2000/svg"><path d="M56.035.052h-56v56h56v-56z" fill="#fff"/><path d="M30.503 48.737h-18.62c-3.36 0-6.09-2.712-6.09-6.055V7.28c0-3.343 2.73-6.055 6.09-6.055h25.2c3.36 0 6.09 2.712 6.09 6.055v23.66H41.58V7.28c0-2.468-2.03-4.48-4.514-4.48H11.883c-2.485 0-4.515 2.012-4.515 4.48v35.385c0 2.468 2.03 4.48 4.515 4.48H30.52v1.592h-.017z" fill="#1D1D1B"/><path fill-rule="evenodd" clip-rule="evenodd" d="M44.817 55.055l-11.602-.053a.936.936 0 01-.928-.875c-.245-3.815-2.555-6.737-4.672-9.94-.998-1.522-1.54-3.447-1.12-5.11.385-1.575 1.54-2.764 3.482-3.15l.315-.035V24.36c.018-.875.333-1.627.928-2.17.647-.595 1.522-.84 2.362-.84.928 0 1.89.122 2.555.84.648.682.753 1.68.718 2.712v4.638l.35-.105c.245-.035.49-.07.735-.07.49 0 .962.035 1.382.158.438.122.84.332 1.173.682.157.175.28.368.385.578l.14.42.665-.193c.245-.035.49-.07.735-.07.49 0 .962.035 1.382.157.438.123.84.333 1.173.683.315.35.507.77.612 1.225v.052l.158-.017c.157 0 .315-.017.472-.017 1.068 0 1.978.262 2.625 1.12.56.734.823 1.802 1.05 3.062.98 6.335-3.552 12.95-4.147 17.098a.911.911 0 01-.928.787v-.035zm-.77-1.855v-.088c1.05-4.515 4.83-10.29 4.008-15.662-.228-1.278-.438-1.908-.683-2.24-.157-.21-.402-.385-1.137-.385-.193 0-.368.017-.525.052l-.035 2.783c0 .508-.42.928-.945.91a.934.934 0 01-.928-.928l.035-3.237c.035-.998-.122-1.313-.227-1.418-.088-.087-.315-.245-1.19-.245-.63 0-1.015.193-1.208.456l-.035 2.887c0 .508-.42.928-.945.91a.934.934 0 01-.927-.927l.035-3.238c.035-.997-.123-1.313-.228-1.417-.087-.088-.332-.245-1.19-.245-.472 0-.805.105-1.015.28l-.087.087v4.637c0 .508-.438.928-.945.928a.934.934 0 01-.928-.928l.035-11.34c.035-1.015-.122-1.312-.227-1.417-.088-.087-.333-.245-1.19-.245-.525 0-.893.14-1.103.332-.192.175-.367.473-.332 1.068v16.485c0 .508-.42.928-.928.928a.934.934 0 01-.927-.928v-3.343l-.438.123c-.945.332-1.382.945-1.54 1.645-.245 1.033.07 2.433.875 3.658 1.733 2.625 4.025 5.565 4.76 9.24l.123.752 9.975.052.017.018z" fill="#010101"/><path d="M44.818 55.318l-11.603-.053a1.19 1.19 0 01-1.19-1.12c-.192-3.255-1.96-5.845-3.797-8.593-.28-.402-.543-.804-.823-1.224-1.12-1.698-1.557-3.693-1.155-5.32.42-1.768 1.733-2.958 3.675-3.343h.105V24.343c.018-.963.368-1.785 1.015-2.363.805-.753 1.838-.91 2.555-.91.875 0 1.995.105 2.748.91.752.822.822 1.977.787 2.905v4.27c.28-.053.543-.07.823-.07.577 0 1.05.052 1.452.157.525.14.963.403 1.295.753.175.175.315.402.438.63l.07.21.42-.123c.28-.052.542-.07.822-.07.578 0 1.05.053 1.453.158.525.14.962.402 1.295.752.297.316.507.7.63 1.173 1.522-.14 2.555.28 3.255 1.19.577.752.857 1.82 1.085 3.168.647 4.165-1.015 8.347-2.468 12.04-.752 1.907-1.47 3.71-1.68 5.145a1.205 1.205 0 01-1.19 1.014l-.017.036zm0-.526a.676.676 0 00.665-.577c.21-1.505.945-3.325 1.715-5.268 1.435-3.622 3.062-7.735 2.432-11.76-.227-1.277-.472-2.274-.997-2.94-.525-.682-1.295-1.014-2.415-1.014-.158 0-.298 0-.455.017l-.385.07-.035-.263c-.105-.49-.28-.857-.56-1.137a2.235 2.235 0 00-1.05-.613c-.35-.104-.788-.14-1.313-.14-.245 0-.472.018-.7.053l-.875.245-.227-.648a2.108 2.108 0 00-.333-.472 2.077 2.077 0 00-1.05-.595c-.35-.105-.787-.14-1.312-.14-.245 0-.473.018-.7.053l-.665.192v-4.988c.052-1.225-.14-2.012-.63-2.537-.613-.665-1.593-.752-2.363-.752-.63 0-1.505.14-2.187.77-.525.49-.823 1.172-.84 1.977v11.76l-.543.07c-1.715.35-2.887 1.4-3.255 2.957-.367 1.488.053 3.325 1.085 4.9.28.42.543.823.823 1.225 1.89 2.8 3.692 5.46 3.902 8.855.018.35.315.613.665.613l11.603.053v.034zm-.56-1.33l-10.413-.052-.157-.98c-.613-3.063-2.38-5.67-3.938-7.962-.28-.403-.542-.788-.787-1.173-.84-1.26-1.19-2.748-.91-3.867.227-.893.805-1.505 1.715-1.82l.787-.21v3.692a.665.665 0 101.33 0V24.675c-.035-.613.105-1.05.403-1.33.21-.192.595-.402 1.277-.402.963 0 1.243.192 1.383.332.227.245.315.77.297 1.61l-.035 11.34c0 .175.07.35.193.472a.676.676 0 00.472.193.665.665 0 00.665-.665v-4.76l.193-.157c.315-.228.717-.35 1.207-.35.963 0 1.243.192 1.383.332.227.245.315.77.297 1.61l-.035 3.238c0 .175.07.35.193.472a.676.676 0 00.472.193.661.661 0 00.665-.648l.035-2.975.053-.07c.21-.245.612-.56 1.417-.56.963 0 1.243.193 1.383.333.227.244.315.77.297 1.61l-.035 3.237c0 .175.07.35.193.473a.676.676 0 00.472.192.661.661 0 00.665-.648l.035-2.992.21-.053c.193-.035.385-.07.595-.07.805 0 1.12.193 1.348.49.297.386.507 1.086.735 2.346.56 3.622-.963 7.472-2.31 10.867-.683 1.75-1.348 3.395-1.68 4.9l-.053.297-.017-.07zm-9.975-.577l9.537.035c.368-1.505.998-3.133 1.68-4.848 1.313-3.325 2.818-7.105 2.275-10.587-.21-1.155-.402-1.803-.63-2.117-.087-.105-.21-.28-.927-.28h-.263v2.572a1.242 1.242 0 01-1.225 1.173 1.15 1.15 0 01-.84-.35 1.095 1.095 0 01-.332-.84l.035-3.238c.035-.998-.123-1.208-.14-1.225 0 0-.158-.157-.998-.157-.42 0-.752.104-.945.297l-.035 2.782a1.188 1.188 0 01-2.03.823 1.095 1.095 0 01-.332-.84l.035-3.238c.035-1.015-.123-1.207-.14-1.225 0 0-.158-.157-.998-.157-.437 0-.7.105-.84.21v4.533c0 .647-.56 1.19-1.207 1.19-.315 0-.613-.123-.84-.35a1.179 1.179 0 01-.35-.84l.035-11.34c.035-1.015-.14-1.226-.158-1.243 0 0-.157-.157-.997-.157-.543 0-.823.174-.928.262-.175.175-.262.455-.245.857V41.09c0 .665-.542 1.19-1.19 1.19-.647 0-1.19-.543-1.19-1.19v-3.01l-.105.035c-.735.245-1.19.735-1.365 1.453-.245.98.088 2.31.84 3.447.245.385.508.77.788 1.172 1.592 2.328 3.377 4.97 4.007 8.156l.088.542h-.07z" fill="#fff"/><path d="M36.102 12.197H13.334a.784.784 0 01-.787-.787c0-.438.35-.787.787-.787h22.768c.437 0 .787.35.787.787 0 .438-.35.787-.787.787zM36.102 17.413H13.334a.784.784 0 01-.787-.788c0-.438.35-.787.787-.787h22.768c.437 0 .787.35.787.787 0 .438-.35.788-.787.788zM28.437 22.645H13.334a.784.784 0 01-.787-.787c0-.438.35-.788.787-.788h15.103c.437 0 .787.35.787.788 0 .437-.35.787-.787.787zM28.437 27.86H13.334a.784.784 0 01-.787-.787c0-.438.35-.788.787-.788h15.103c.437 0 .787.35.787.788 0 .437-.35.787-.787.787zM28.437 33.093H13.334a.784.784 0 01-.787-.788c0-.438.35-.788.787-.788h15.103c.437 0 .787.35.787.788 0 .438-.35.788-.787.788z" fill="#1D1D1B"/></svg>
